img/burger.svg

<svg width="20" height="14" fill="none" xmlns="http://www.w3.org/2000/svg"><path fill-rule="evenodd" clip-rule="evenodd" d="M2 14h18v-2H2v2zM0 8h18V6H0v2zm2-8v2h18V0H2z" fill="url(#paint0_linear)"/><defs><linearGradient id="paint0_linear" x1="20" y1="0" x2="-1.647" y2="3.824" gradientUnits="userSpaceOnUse"><stop stop-color="#FFE600"/><stop offset="1" stop-color="#FA940B"/></linearGradient></defs></svg>

<svg width="20" height="14" viewBox="0 0 20 14" fill="none" xmlns="http://www.w3.org/2000/svg">
<path fill-rule="evenodd" clip-rule="evenodd" d="M2 14H20V12H2V14ZM0 8H18V6H0V8ZM2 0V2H20V0H2Z" fill="url(#paint0_linear)"/>
<defs>
<linearGradient id="paint0_linear" x1="20" y1="2.61719e-06" x2="-1.64739" y2="3.82359" gradientUnits="userSpaceOnUse">
<stop stop-color="#FFE600"/>
<stop offset="1" stop-color="#FA940B"/>
</linearGradient>
</defs>
</svg>
